X:1
T:A ULTIMA HORA 
T:HC-570 CC-259
T:João Dieners (1889-1963) Arranjo e Adaptação para Cordas: Anderson TEixeira (11) 96073-0235 
%%score [ 1 2 3 4 ]
L:1/8
Q:1/4=80
M:3/4
K:F
V:1 treble nm="Violino" snm="Vln."
V:2 treble nm="Violino" snm="Vln."
V:3 alto nm="Viola" snm="Vla"
V:4 bass nm="Violoncelo" snm="Vc."
V:1
 C>C |:"^A" A4 A>A | B2 A2 G2 | A6 | F4 C>C | G4 G>G | B2 A2 G2 | A6- | A4 C>C | A4 A>A | %10
 B2 A2 G2 | A6 | F4 C>C | G4 G>G | B2 A2 G2 | F6- | F4 F>F ||"^Refrão" d4 B>d | f2 e2 d2 | c6 | %20
 A4 c>c | c4 B>A | G2 F2 G2 | A6- | A4 F>F | d4 B>d | f2 e2 d2 | c6 | A4 c>c | c4 B>A | G2 A2 G2 | %31
 F6- |1 F4 C>C :|2 F4 c>c ||"^B" a4 a>a | b2 a2 g2 | a6 | f4 c>c | g4 g>g | b2 a2 g2 | a6- | %41
 a4 c>c | a4 a>a | b2 a2 g2 | a6 | f4 c>c | g4 g>g | b2 a2 g2 | f6- | f4 F>F ||"^Refrão 2" d4 B>d | %51
 f2 e2 d2 | c6 | A4 c>c | c4 B>A | G2 F2 G2 | A6- | A4 F>F | d4 B>d | f2 e2 d2 | c6 | A4 c>c | %62
 c4 B>A | G2 A2 G2 | F6- | F6 |] %66
V:2
 C>C |: F4 F>F | F2 F2 F2 | F6 | F4 C>C | E4 E>E | E2 E2 E2 | F6- | F4 C>C | F4 F>F | F2 F2 F2 | %11
 F6 | F4 C>C | E4 E>E | E2 E2 E2 | F6- | F4 F>F || B4 B>B | d2 c2 B2 | A6 | F4 F>F | E4 G>F | %22
 E2 D2 E2 | F6- | F4 F>F | B4 B>B | d2 c2 B2 | A6 | F4 F>F | E4 E>E | E2 F2 C2 | C6- |1 C4 C>C :|2 %33
 C4 c>c || c4 f>f | f2 f2 f2 | f6 | c4 c>c | e4 e>e | e2 e2 e2 | f6- | f4 c>c | c4 f>f | f2 f2 f2 | %44
 f6 | c4 c>c | e4 e>e | e2 e2 e2 | f2 c2 d2 | _e4 _E>E || F4 D>F | F2 F2 F2 | F6 | F4 F>F | %54
 E4 E>F | E2 F2 E2 | F2 C2 D2 | _E4 E>E | F4 D>F | F2 F2 F2 | F6 | F4 A>A | G4 E>E | E2 F2 C2 | %64
 C6- | C6 |] %66
V:3
 A,>A, |: C4 C>C | D2 C2 B,2 | C6 | A,4 A,>A, | B,4 B,>B, | D2 C2 B,2 | C6- | C4 A,>A, | C4 C>C | %10
 D2 C2 B,2 | C6 | A,4 A,>A, | B,4 B,>B, | D2 C2 B,2 | A,6- | A,4 A,>A, || B,4 B,>B, | D2 C2 B,2 | %19
 A,6 | C4 A,>A, | C4 C>C | C2 C2 C2 | C6- | C4 A,>A, | B,4 B,>B, | D2 C2 B,2 | A,6 | C4 A,>A, | %29
 G,4 D>C | B,2 C2 B,2 | A,6- |1 A,4 A,>A, :|2 A,4 c>c || c4 c>c | d2 c2 B2 | c6 | A4 F>F | G4 B>B | %39
 d2 c2 B2 | c6- | c4 G>G | c4 c>c | d2 c2 B2 | c6 | A4 F>F | G4 B>B | d2 c2 B2 | A2 A2 B2 | %49
 c4 A>A || B4 F>B | d2 c2 B2 | A6 | c4 A>A | B4 G>c | B2 A2 c2 | c2 A2 B2 | c4 A>A | B4 F>B | %59
 d2 c2 B2 | A6 | c4 c>c | e4 d>c | B2 c2 B2 | A6 | A,6 |] %66
V:4
 F,,>F,, |: F,,4 F,,>F,, | F,,2 F,,2 F,,2 | F,,6 | F,,4 F,,>F,, | C,4 C,>C, | C,2 C,2 C,2 | F,,6- | %8
 F,,4 F,,>F,, | F,,4 F,,>F,, | F,,2 F,,2 F,,2 | F,,6 | F,,4 F,,>F,, | C,4 C,>C, | C,2 C,2 C,2 | %15
 F,,6- | F,,4 F,,>F,, || F,,4 B,,>B,, | B,,2 B,,2 B,,2 | F,,6 | F,,4 F,,>F,, | C,4 C,>C, | %22
 C,2 C,2 C,2 | F,,6- | F,,4 F,,>F,, | B,,4 B,,>B,, | B,,2 B,,2 B,,2 | F,,6 | F,,4 F,,>F,, | %29
 C,4 C,>C, | C,2 C,2 C,2 | F,,6- |1 F,,4 F,,>F,, :|2 F,,4 C,>C, || F,4 F,>F, | F,2 F,2 F,2 | F,6 | %37
 F,4 A,,>A,, | C,4 C,>C, | C,2 C,2 C,2 | F,6- | F,4 E,>E, | F,4 F,>F, | F,2 F,2 F,2 | F,6 | %45
 F,4 A,,>A,, | C,4 C,>C, | C,2 C,2 C,2 | F,6- | F,4 F,>F, || B,,4 B,,>B,, | B,,2 B,,2 B,,2 | F,6 | %53
 F,4 F,>F, | C,4 C,>C, | C,2 C,2 C,2 | F,6- | F,4 F,>F, | B,,4 B,,>B,, | B,,2 B,,2 B,,2 | F,6 | %61
 F,4 F,>F, | C,4 C,>C, | C,2 C,2 C,2 | F,6 | F,,6 |] %66

